src/less/icons/svg/cross.svg

<svg width="800px" height="800px" viewBox="-80 -80 700 700" version="1.1" xmlns="http://www.w3.org/2000/svg">
    <path d="M567.006313,46.872 C572.393313,52.259 575.086312,58.725 575.086312,66.266 C575.086312,73.809 572.393313,80.273 567.006313,85.66 L355.725,281.714 L558.926313,473.71775 C564.313313,479.10675 567.006313,485.57175 567.006313,493.11375 C567.006313,500.65575 564.313313,507.12175 558.926313,512.50875 L520.135312,551.29875 C514.748313,556.68675 508.283313,559.38075 500.740312,559.38075 C493.197313,559.38075 486.732312,556.68675 481.345312,551.29875 L283.144,360.294 L85.66,551.29875 C80.273,556.68575 73.809,559.38075 66.265,559.38075 C58.724,559.38075 52.259,556.68575 46.871,551.29875 L8.081,512.50975 C2.694,507.12075 -0.00200027819,500.65575 -0.00200027819,493.11375 C-0.00200027819,485.57075 2.693,479.10575 8.081,473.71775 L210.564,282.714 L8.079,87.661 C2.691,82.274 -0.00200027819,75.809 -0.00200027819,68.267 C-0.00200027819,60.725 2.692,54.26 8.079,48.872 L46.869,10.082 C52.257,4.695 58.722,1.99999917 66.265,1.99999917 C73.806,1.99999917 80.271,4.693 85.659,10.081 L283.144,210.134 L489.425313,8.08 C494.812313,2.693 501.277313,-8.34415061e-07 508.820313,-8.34415061e-07 C516.363313,-8.34415061e-07 522.828313,2.694 528.215313,8.082 L567.006313,46.872 Z" id="Path"></path>
</svg>

<svg width="657.23" height="639.28" version="1.1" viewBox="0 0 575.08 559.37" xmlns="http://www.w3.org/2000/svg">
 <path id="Path" d="m567 46.87c5.387 5.387 8.08 11.853 8.08 19.394 0 7.543-2.693 14.007-8.08 19.394l-211.28 196.05 203.2 192c5.387 5.389 8.08 11.854 8.08 19.396s-2.693 14.008-8.08 19.395l-38.791 38.79c-5.387 5.388-11.852 8.082-19.395 8.082s-14.008-2.694-19.395-8.082l-198.2-191-197.48 191c-5.387 5.387-11.851 8.082-19.395 8.082-7.541 0-14.006-2.695-19.394-8.082l-38.79-38.789c-5.387-5.389-8.083-11.854-8.083-19.396 0-7.543 2.695-14.008 8.083-19.396l202.48-191-202.48-195.05c-5.388-5.387-8.081-11.852-8.081-19.394s2.694-14.007 8.081-19.395l38.79-38.79c5.388-5.387 11.853-8.082 19.396-8.082 7.541 0 14.006 2.693 19.394 8.081l197.48 200.05 206.28-202.05c5.387-5.387 11.852-8.08 19.395-8.08s14.008 2.694 19.395 8.082z"/>
</svg>
